svgs/light/message-minus.svg

<svg xmlns="http://www.w3.org/2000/svg" viewBox="0 0 512 512"><!-- Font Awesome Pro 6.0.0-alpha2 by @fontawesome - https://fontawesome.com License - https://fontawesome.com/license (Commercial License) --><path d="M448 0H64C28.75 0 0 28.75 0 64V352.002C0 387.252 28.75 416.002 64 416.002H160V500.002C160 509.84 171.023 515.479 179.125 509.627L304 416.002H448C483.25 416.002 512 387.252 512 352.002V64C512 28.75 483.25 0 448 0ZM480 352.002C480 369.602 465.602 384.002 448 384.002H303.922C296.996 384.002 290.254 386.25 284.711 390.408L192 460.002V400.002C192 391.164 184.836 384.002 176 384.002H64C46.398 384.002 32 369.602 32 352.002V64C32 46.4 46.398 32 64 32H448C465.602 32 480 46.4 480 64V352.002ZM336 192.002H176C167.16 192.002 160 199.162 160 208C160 216.834 167.156 223.998 176 223.998H336C344.84 223.998 352 216.838 352 208S344.84 192.002 336 192.002Z"/></svg>

<svg xmlns="http://www.w3.org/2000/svg" viewBox="0 0 512 512"><!--! Font Awesome Pro 6.3.0 by @fontawesome - https://fontawesome.com License - https://fontawesome.com/license (Commercial License) Copyright 2023 Fonticons, Inc. --><path d="M448 0H64C28.75 0 0 28.75 0 63.1v287.1c0 35.25 28.75 63.1 64 63.1h96v83.1c0 9.838 11.02 15.55 19.12 9.7L304 415.1H448c35.25 0 64-28.75 64-63.1V63.1C512 28.75 483.3 0 448 0zM480 352c0 17.6-14.4 32-32 32h-144.1c-6.926 0-13.67 2.248-19.21 6.406L192 460v-60c0-8.838-7.164-16-16-16H64c-17.6 0-32-14.4-32-32V64c0-17.6 14.4-32 32-32h384c17.6 0 32 14.4 32 32V352zM336 192h-160C167.2 192 160 199.2 160 208c0 8.834 7.156 15.1 16 15.1h160c8.84 0 16-7.16 16-15.1S344.8 192 336 192z"/></svg>
